X: 15147
T: Gigue Canadienne
R: reel
M: 4/4
K: Dmajor
A3B|:cAAA cABc|dedc B3d|cAAA cABc|
[1 dedB AAAB:|2 dedB A3c|:{g}a2g2 fcB c|{g}a2g2 f2cB|cedc BBB c|
{g}a2g2 fcB c|{g}a2g2 f2cB|1 cedc A3 c:|2 cedc A3B||

